X:1
T:Billy Boy
M:6/8
L:1/8
K:G
 G2 G G2 G| A2 F FED| GFG Bcd| cBA d3| e2 e d2 d| ABA FED| GBd cBA|\
 GBA G2||
